src/lib/packages/icons/src/assets/filled/link-broken.svg

<svg width="24" height="24" viewBox="0 0 24 24" fill="none" xmlns="http://www.w3.org/2000/svg">
<path d="M17.5649 14.546C17.3099 14.546 17.0551 14.449 16.8601 14.255C16.4681 13.866 16.466 13.232 16.856 12.841L18.824 10.863C19.584 10.111 20 9.10399 20 8.02399C20 6.94399 19.5829 5.93299 18.8259 5.17599C17.2599 3.60799 14.7079 3.60999 13.1389 5.17599L11.1731 7.15201C10.7841 7.54301 10.152 7.54601 9.75903 7.15601C9.36703 6.76701 9.36488 6.133 9.75488 5.742L11.7229 3.76401C14.0719 1.41501 17.893 1.41499 20.24 3.76199C21.375 4.89599 22 6.40999 22 8.02399C22 9.64299 21.3741 11.154 20.2361 12.28L18.2739 14.253C18.0789 14.448 17.8219 14.546 17.5649 14.546ZM12.2739 20.24L14.2529 18.272C14.6449 17.882 14.6471 17.249 14.2571 16.858C13.8671 16.467 13.235 16.464 12.843 16.854L10.863 18.824C9.29404 20.392 6.74403 20.39 5.17603 18.824C3.60903 17.256 3.60907 14.706 5.17407 13.14L7.15308 11.172C7.54508 10.782 7.54698 10.149 7.15698 9.758C6.76698 9.367 6.13492 9.364 5.74292 9.754L3.76294 11.724C1.41494 14.071 1.41494 17.89 3.76294 20.238C4.93794 21.412 6.47997 21.998 8.02197 21.998C9.56197 21.999 11.1029 21.413 12.2739 20.24ZM22 17C22 16.448 21.553 16 21 16H19C18.447 16 18 16.448 18 17C18 17.552 18.447 18 19 18H21C21.553 18 22 17.552 22 17ZM18 21V19C18 18.448 17.553 18 17 18C16.447 18 16 18.448 16 19V21C16 21.552 16.447 22 17 22C17.553 22 18 21.552 18 21ZM6 7C6 6.448 5.553 6 5 6H3C2.447 6 2 6.448 2 7C2 7.552 2.447 8 3 8H5C5.553 8 6 7.552 6 7ZM8 5V3C8 2.448 7.553 2 7 2C6.447 2 6 2.448 6 3V5C6 5.552 6.447 6 7 6C7.553 6 8 5.552 8 5Z" fill="currentColor"/>
</svg>

<svg xmlns="http://www.w3.org/2000/svg" width="24" height="24" fill="none"><path fill="currentColor" d="M17.565 14.546a.999.999 0 0 1-.709-1.705l1.968-1.978A3.958 3.958 0 0 0 20 8.024c0-1.08-.417-2.091-1.174-2.848a4.028 4.028 0 0 0-5.687 0l-1.966 1.976a1 1 0 0 1-1.418-1.41l1.968-1.978a6.03 6.03 0 0 1 8.517-.002A5.982 5.982 0 0 1 22 8.024c0 1.619-.626 3.13-1.764 4.256l-1.962 1.973a1 1 0 0 1-.71.293Zm-5.291 5.694 1.979-1.968a.999.999 0 1 0-1.41-1.418l-1.98 1.97a4.027 4.027 0 0 1-5.687 0 4.026 4.026 0 0 1-.002-5.684l1.98-1.968a.999.999 0 1 0-1.411-1.418l-1.98 1.97a6.026 6.026 0 0 0 0 8.514 6.006 6.006 0 0 0 4.259 1.76 5.984 5.984 0 0 0 4.252-1.758ZM22 17a1 1 0 0 0-1-1h-2a1 1 0 1 0 0 2h2a1 1 0 0 0 1-1Zm-4 4v-2a1 1 0 1 0-2 0v2a1 1 0 1 0 2 0ZM6 7a1 1 0 0 0-1-1H3a1 1 0 1 0 0 2h2a1 1 0 0 0 1-1Zm2-2V3a1 1 0 1 0-2 0v2a1 1 0 1 0 2 0Z"/></svg>
